_site/images/logos/Bitbucket.svg

<?xml version="1.0" encoding="UTF-8"?>
<svg width="35px" height="31px" viewBox="0 0 35 31" version="1.1" xmlns="http://www.w3.org/2000/svg" xmlns:xlink="http://www.w3.org/1999/xlink">
    <!-- Generator: Sketch 52.6 (67491) - http://www.bohemiancoding.com/sketch -->
    <title>Bitbucket-blue</title>
    <desc>Created with Sketch.</desc>
    <g id="Landing-page" stroke="none" stroke-width="1" fill="none" fill-rule="evenodd" opacity="0.917875744">
        <g id="1.1--Home" transform="translate(-1069.000000, -764.000000)">
            <g id="header" transform="translate(0.000000, 100.000000)">
                <g id="Slogan">
                    <g id="Component-/-Background">
                        <g>
                            <g id="Group-34" transform="translate(729.000000, 615.000000)">
                                <g id="Group-32" transform="translate(0.000000, 44.000000)">
                                    <g id="Bitbucket-blue" transform="translate(340.000000, 5.000000)">
                                        <polygon id="Path" points="12.8914591 19.5789474 20.6316726 19.5789474 22.5 9.78947368 10.8333333 9.78947368"></polygon>
                                        <path d="M1.13587724,0.000180158859 C0.804593909,-0.00402841595 0.488376688,0.136269585 0.272050685,0.383439293 C0.0557246824,0.630609002 -0.0385664455,0.959349525 0.0144708486,1.28147638 L4.77484098,29.7461348 C4.89727058,30.4651492 5.52616444,30.9937772 6.26631148,30.9998169 L29.1037526,30.9998169 C29.6592893,31.0068596 30.1363118,30.6121781 30.225159,30.0719817 L34.9855292,1.28699921 C35.0385664,0.964872354 34.9442753,0.636131831 34.7279493,0.388962122 C34.5116233,0.141792413 34.1954061,0.00149441261 33.8641228,0.00570298742 L1.13587724,0.000180158859 Z M21.1810165,20.5727165 L13.8918749,20.5727165 L11.9181997,10.4162348 L22.9472315,10.4162348 L21.1810165,20.5727165 Z" id="Shape" fill="#FFFFFF" fill-rule="nonzero"></path>
                                        <path d="M32.5,10.6052632 L22.2319475,10.6052632 L20.5087527,20.6685183 L13.3971554,20.6685183 L5,30.6387472 C5.26615272,30.8689613 5.60548557,30.9969775 5.95733042,30.9999081 L28.2439825,30.9999081 C28.7859877,31.0068862 29.2513913,30.6158275 29.3380744,30.0805895 L32.5,10.6052632 Z" id="Path" fill="#FFFFFF" fill-rule="nonzero"></path>
                                    </g>
                                </g>
                            </g>
                        </g>
                    </g>
                </g>
            </g>
        </g>
    </g>
</svg>

<svg height="31" viewBox="0 0 35 31" width="35" xmlns="http://www.w3.org/2000/svg"><g fill="none" fill-rule="evenodd" opacity=".917876"><path d="m12.8914591 19.5789474h7.7402135l1.8683274-9.78947372h-11.6666667z"/><g fill="#fff" fill-rule="nonzero"><path d="m1.13587724.00018016c-.33128333-.00420858-.64750055.13608943-.86382655.38325913-.21632601.24716971-.31061714.57591024-.25757984.89803709l4.76037013 28.46465842c.1224296.7190144.75132346 1.2476424 1.4914705 1.2536821h22.83744112c.5555367.0070427 1.0325592-.3876388 1.1214064-.9278352l4.7603702-28.78498249c.0530372-.32212686-.0412539-.65086738-.2575799-.89803709s-.5325432-.38746771-.8638265-.38325913zm20.04513926 20.57253634h-7.2891416l-1.9736752-10.1564817h11.0290318z"/><path d="m32.5 10.6052632h-10.2680525l-1.7231948 10.0632551h-7.1115973l-8.3971554 9.9702289c.26615272.2302141.60548557.3582303.95733042.3611609h22.28665208c.5420052.0069781 1.0074088-.3840806 1.0940919-.9193186z"/></g></g></svg>
